papirus/48x48/apps/doublecmd.svg

<?xml version="1.0" encoding="UTF-8" standalone="no"?>
<!-- Created with Inkscape (http://www.inkscape.org/) -->

<svg
   xmlns:dc="http://purl.org/dc/elements/1.1/"
   xmlns:cc="http://creativecommons.org/ns#"
   xmlns:rdf="http://www.w3.org/1999/02/22-rdf-syntax-ns#"
   xmlns:svg="http://www.w3.org/2000/svg"
   xmlns="http://www.w3.org/2000/svg"
   xmlns:xlink="http://www.w3.org/1999/xlink"
   xmlns:sodipodi="http://sodipodi.sourceforge.net/DTD/sodipodi-0.dtd"
   xmlns:inkscape="http://www.inkscape.org/namespaces/inkscape"
   id="svg2817"
   height="48"
   width="48"
   version="1.0"
   inkscape:version="0.91 r"
   sodipodi:docname="doublecmd.svg">
  <metadata
     id="metadata57">
    <rdf:RDF>
      <cc:Work
         rdf:about="">
        <dc:format>image/svg+xml</dc:format>
        <dc:type
           rdf:resource="http://purl.org/dc/dcmitype/StillImage" />
        <dc:title />
      </cc:Work>
    </rdf:RDF>
  </metadata>
  <sodipodi:namedview
     pagecolor="#ffffff"
     bordercolor="#666666"
     borderopacity="1"
     objecttolerance="10"
     gridtolerance="10"
     guidetolerance="10"
     inkscape:pageopacity="0"
     inkscape:pageshadow="2"
     inkscape:window-width="1600"
     inkscape:window-height="840"
     id="namedview55"
     showgrid="false"
     inkscape:zoom="14.06"
     inkscape:cx="7.7267406"
     inkscape:cy="24.778257"
     inkscape:window-x="-4"
     inkscape:window-y="34"
     inkscape:window-maximized="1"
     inkscape:current-layer="svg2817" />
  <defs
     id="defs2819">
    <linearGradient
       inkscape:collect="always"
       id="linearGradient4185">
      <stop
         style="stop-color:#000000;stop-opacity:1;"
         offset="0"
         id="stop4187" />
      <stop
         style="stop-color:#000000;stop-opacity:0;"
         offset="1"
         id="stop4189" />
    </linearGradient>
    <linearGradient
       id="linearGradient2815"
       y2="17.5"
       spreadMethod="reflect"
       gradientUnits="userSpaceOnUse"
       x2="3.0052"
       y1="17.5"
       x1="44.995">
      <stop
         id="stop3277"
         style="stop-color:#fff;stop-opacity:0"
         offset="0" />
      <stop
         id="stop3283"
         style="stop-color:#fff"
         offset=".245" />
      <stop
         id="stop3285"
         style="stop-color:#fff"
         offset=".77350" />
      <stop
         id="stop3279"
         style="stop-color:#fff;stop-opacity:0"
         offset="1" />
    </linearGradient>
    <linearGradient
       id="linearGradient2813"
       y2="8"
       gradientUnits="userSpaceOnUse"
       x2="26"
       y1="22"
       x1="26">
      <stop
         id="stop3829"
         style="stop-color:#fff"
         offset="0" />
      <stop
         id="stop4295"
         style="stop-color:#fff"
         offset=".30213" />
      <stop
         id="stop4293"
         style="stop-color:#fff;stop-opacity:.69020"
         offset=".34361" />
      <stop
         id="stop3832"
         style="stop-color:#fff;stop-opacity:0"
         offset="1" />
    </linearGradient>
    <linearGradient
       id="linearGradient2811"
       y2="45.934"
       gradientUnits="userSpaceOnUse"
       x2="43.007"
       gradientTransform="matrix(1.2822 0 0 1.1747 -6.0702 -5.3032)"
       y1="30.555"
       x1="23.452">
      <stop
         id="stop4561"
         style="stop-color:#fff;stop-opacity:0"
         offset="0" />
      <stop
         id="stop4563"
         style="stop-color:#fff;stop-opacity:0"
         offset="1" />
    </linearGradient>
    <linearGradient
       id="linearGradient2809"
       y2="45.042"
       gradientUnits="userSpaceOnUse"
       x2="15.464"
       y1="7.9757"
       x1="15.464">
      <stop
         id="stop3297"
         style="stop-color:#c9af8b"
         offset="0" />
      <stop
         id="stop3299"
         style="stop-color:#ad8757"
         offset=".23942" />
      <stop
         id="stop3301"
         style="stop-color:#c2a57f"
         offset=".27582" />
      <stop
         id="stop3303"
         style="stop-color:#9d7d53"
         offset="1" />
    </linearGradient>
    <linearGradient
       id="linearGradient2807"
       y2="37.277"
       gradientUnits="userSpaceOnUse"
       x2="24.997"
       gradientTransform="matrix(1.2822 0 0 1.5573 -6.0702 -15.291)"
       y1="15.378"
       x1="24.823">
      <stop
         id="stop3201"
         style="stop-color:#dac197"
         offset="0" />
      <stop
         id="stop3203"
         style="stop-color:#c1a581"
         offset=".23942" />
      <stop
         id="stop3205"
         style="stop-color:#dbc298"
         offset=".27582" />
      <stop
         id="stop3207"
         style="stop-color:#a68b60"
         offset="1" />
    </linearGradient>
    <radialGradient
       id="radialGradient2805"
       xlink:href="#linearGradient3681"
       gradientUnits="userSpaceOnUse"
       cy="41.5"
       cx="5"
       gradientTransform="matrix(.59382 0 0 1.5367 41.141 -103.94)"
       r="5" />
    <linearGradient
       id="linearGradient2803"
       y2="35"
       gradientUnits="userSpaceOnUse"
       x2="17.554"
       gradientTransform="matrix(1.757 0 0 1.397 -17.394 -16.412)"
       y1="46"
       x1="17.554">
      <stop
         id="stop3705"
         style="stop-opacity:0"
         offset="0" />
      <stop
         id="stop3711"
         offset=".5" />
      <stop
         id="stop3707"
         style="stop-opacity:0"
         offset="1" />
    </linearGradient>
    <linearGradient
       id="linearGradient3681">
      <stop
         id="stop3683"
         offset="0" />
      <stop
         id="stop3685"
         style="stop-opacity:0"
         offset="1" />
    </linearGradient>
    <radialGradient
       id="radialGradient2801"
       xlink:href="#linearGradient3681"
       gradientUnits="userSpaceOnUse"
       cy="41.5"
       cx="5"
       gradientTransform="matrix(.59382 0 0 1.5367 -6.6595 -103.94)"
       r="5" />
    <linearGradient
       id="linearGradient2789"
       y2="25.411"
       gradientUnits="userSpaceOnUse"
       x2="57.726"
       gradientTransform="matrix(0 .71282 -.67402 0 50.746 15.046)"
       y1="25.411"
       x1="13.472">
      <stop
         id="stop4224"
         style="stop-color:#fff"
         offset="0" />
      <stop
         id="stop4226"
         style="stop-color:#fff;stop-opacity:0"
         offset="1" />
    </linearGradient>
    <linearGradient
       id="linearGradient2787"
       y2="20.71"
       gradientUnits="userSpaceOnUse"
       x2=".81572"
       gradientTransform="matrix(0 -.61460 -.58384 0 46.949 46.633)"
       y1="20.71"
       x1="28.315">
      <stop
         id="stop2266"
         style="stop-color:#d7e866"
         offset="0" />
      <stop
         id="stop2268"
         style="stop-color:#8cab2a"
         offset="1" />
    </linearGradient>
    <linearGradient
       inkscape:collect="always"
       xlink:href="#linearGradient4185"
       id="linearGradient4191"
       x1="24.291777"
       y1="22.120689"
       x2="24.238728"
       y2="3.9509284"
       gradientUnits="userSpaceOnUse"
       gradientTransform="translate(0,1)" />
  </defs>
  <rect
     transform="matrix(0,-1,-1,0,0,0)"
     style="fill:#d95951;fill-opacity:1;stroke:none"
     id="rect4203-6"
     width="40"
     height="40"
     x="-44"
     y="-44"
     rx="2"
     ry="2" />
  <path
     style="opacity:0.2;fill:#ffffff;fill-opacity:1;stroke:none"
     d="M 6,4 C 4.892,4 4,4.892 4,6 L 4,7 C 4,5.892 4.892,5 6,5 l 36,0 c 1.108,0 2,0.892 2,2 L 44,6 C 44,4.892 43.108,4 42,4 L 6,4 Z"
     id="rect4592"
     inkscape:connector-curvature="0" />
  <path
     id="path4597"
     d="M 6,44 C 4.892,44 4,43.108 4,42 l 0,-1 c 0,1.108 0.892,2 2,2 l 36,0 c 1.108,0 2,-0.892 2,-2 l 0,1 c 0,1.108 -0.892,2 -2,2 L 6,44 Z"
     style="opacity:0.3;fill:#000000;fill-opacity:1;stroke:none"
     inkscape:connector-curvature="0" />
  <g
     transform="matrix(-0.99414699,0,0,1.0058875,35.414929,0.58376479)"
     style="font-style:normal;font-variant:normal;font-weight:normal;font-stretch:normal;font-size:29.80191803px;line-height:125%;font-family:'Droid Naskh Shift Alt';-inkscape-font-specification:'Droid Naskh Shift Alt';letter-spacing:0px;word-spacing:0px;fill:#ffffff;fill-opacity:1;stroke:none;stroke-width:1px;stroke-linecap:butt;stroke-linejoin:miter;stroke-opacity:1"
     id="text4220">
    <path
       inkscape:connector-curvature="0"
       d="M 12.84375,13 C 10.606258,13 8.658831,13.420555 7,14.259766 l 1.0703125,2.283203 c 1.6877633,-0.780661 3.2885685,-1.171875 4.8027345,-1.171875 2.27607,0 4.065198,0.770695 5.367187,2.3125 1.30199,1.541805 1.953125,3.650455 1.953125,6.324218 0,2.761588 -0.631119,4.893712 -1.894531,6.396485 -1.263412,1.493014 -3.062548,2.238281 -5.396484,2.238281 -1.504521,0 -3.1974742,-0.281677 -5.0781252,-0.847656 l 0,2.341797 c 0.896926,0.33178 1.7604282,0.556728 2.5898432,0.673828 C 11.243478,34.937404 12.199128,35 13.279297,35 c 3.11513,0 5.515362,-0.956521 7.203125,-2.869141 C 22.160541,30.208482 23,27.491489 23,23.978516 23,21.773148 22.59931,19.840545 21.798828,18.181641 20.988701,16.522736 19.816657,15.243463 18.283203,14.345703 16.740105,13.447943 14.926933,13 12.84375,13 Z m 22.3125,0 c -2.083183,0 -3.896355,0.447943 -5.439453,1.345703 -1.533454,0.89776 -2.705498,2.177033 -3.515625,3.835938 C 25.40069,19.840545 25,21.773148 25,23.978516 c 0,3.512973 0.839459,6.229966 2.517578,8.152343 C 29.205341,34.043479 31.605573,35 34.720703,35 c 1.080169,0 2.035819,-0.0626 2.865235,-0.189453 0.829415,-0.1171 1.692917,-0.342048 2.589843,-0.673828 l 0,-2.341797 c -1.880651,0.565979 -3.573604,0.847656 -5.078125,0.847656 -2.333936,0 -4.133072,-0.745267 -5.396484,-2.238281 -1.263412,-1.502773 -1.894531,-3.634897 -1.894531,-6.396485 0,-2.673763 0.651135,-4.782413 1.953125,-6.324218 1.301989,-1.541805 3.091117,-2.3125 5.367187,-2.3125 1.514166,0 3.114971,0.391214 4.802735,1.171875 L 41,14.259766 C 39.341169,13.420555 37.393742,13 35.15625,13 Z"
       transform="matrix(-1.0058875,0,0,0.99414696,35.623433,0.41379897)"
       id="path4225" />
  </g>
  <path
     style="opacity:0.1;fill:#000000;fill-opacity:1;stroke:none"
     d="m 4,24 20,20 18,0 c 1.108,0 2,-0.892 2,-2 L 44,24 4,24 Z"
     id="path4038"
     inkscape:connector-curvature="0" />
  <path
     id="path4026"
     d="m 6,4.9999995 c -1.108,0 -2,0.892 -2,2 L 4,24 l 39.999999,0 0,-17.0000005 c 0,-1.108 -0.892,-2 -2,-2 L 6,4.9999995 Z"
     style="opacity:0.15;fill:url(#linearGradient4191);fill-opacity:1;stroke:none"
     inkscape:connector-curvature="0" />
  <g
     id="g4227"
     style="font-style:normal;font-variant:normal;font-weight:normal;font-stretch:normal;font-size:29.80191803px;line-height:125%;font-family:'Droid Naskh Shift Alt';-inkscape-font-specification:'Droid Naskh Shift Alt';letter-spacing:0px;word-spacing:0px;fill:#ffffff;fill-opacity:1;stroke:none;stroke-width:1px;stroke-linecap:butt;stroke-linejoin:miter;stroke-opacity:1"
     transform="matrix(0.99414699,0,0,1.0058875,12.585072,-0.41623521)" />
</svg>

<?xml version="1.0" encoding="UTF-8" standalone="no"?>
<!-- Created with Inkscape (http://www.inkscape.org/) -->
<svg id="svg2817" xmlns:rdf="http://www.w3.org/1999/02/22-rdf-syntax-ns#" xmlns="http://www.w3.org/2000/svg" height="48" width="48" version="1.0" xmlns:cc="http://creativecommons.org/ns#" xmlns:xlink="http://www.w3.org/1999/xlink" xmlns:dc="http://purl.org/dc/elements/1.1/">
 <metadata id="metadata57">
  <rdf:RDF>
   <cc:Work rdf:about="">
    <dc:format>image/svg+xml</dc:format>
    <dc:type rdf:resource="http://purl.org/dc/dcmitype/StillImage"/>
    <dc:title/>
   </cc:Work>
  </rdf:RDF>
 </metadata>
 <defs id="defs2819">
  <linearGradient id="linearGradient4191" y2="3.9509" gradientUnits="userSpaceOnUse" x2="24.239" gradientTransform="translate(0,1)" y1="22.121" x1="24.292">
   <stop id="stop4187" offset="0"/>
   <stop id="stop4189" stop-opacity="0" offset="1"/>
  </linearGradient>
 </defs>
 <rect id="rect4203-6" ry="2" rx="2" transform="matrix(0,-1,-1,0,0,0)" height="40" width="40" y="-44" x="-44" fill="#d95951"/>
 <path id="rect4592" opacity=".2" d="m6 4c-1.108 0-2 0.892-2 2v1c0-1.108 0.892-2 2-2h36c1.108 0 2 0.892 2 2v-1c0-1.108-0.892-2-2-2h-36z" fill="#fff"/>
 <path id="path4597" opacity=".3" d="m6 44c-1.108 0-2-0.892-2-2v-1c0 1.108 0.892 2 2 2h36c1.108 0 2-0.892 2-2v1c0 1.108-0.892 2-2 2h-36z"/>
 <g id="text4220" fill="#fff" transform="matrix(-.99415 0 0 1.0059 35.415 .58376)">
  <path id="path4225" transform="matrix(-1.0059 0 0 .99415 35.623 .41380)" d="m12.844 13c-2.238 0-4.1852 0.421-5.844 1.26l1.0703 2.2832c1.6878-0.78066 3.2886-1.1719 4.8027-1.1719 2.2761 0 4.0652 0.7707 5.3672 2.3125s1.9531 3.6505 1.9531 6.3242c0 2.7616-0.63112 4.8937-1.8945 6.3965-1.2634 1.493-3.0625 2.2383-5.3965 2.2383-1.5045 0-3.1975-0.28168-5.0781-0.84766v2.3418c0.89693 0.33178 1.7604 0.55673 2.5898 0.67383 0.829 0.127 1.785 0.19 2.865 0.19 3.1151 0 5.5154-0.95652 7.2031-2.8691 1.679-1.923 2.518-4.64 2.518-8.152 0-2.206-0.401-4.138-1.201-5.797-0.81-1.659-1.982-2.939-3.516-3.836-1.543-0.898-3.356-1.346-5.439-1.346zm22.312 0c-2.0832 0-3.8964 0.44794-5.4395 1.3457-1.5335 0.89776-2.7055 2.177-3.5156 3.8359-0.8 1.659-1.201 3.591-1.201 5.797 0 3.513 0.83946 6.23 2.5176 8.1523 1.687 1.912 4.088 2.869 7.203 2.869 1.0802 0 2.0358-0.0626 2.8652-0.18945 0.82942-0.1171 1.6929-0.34205 2.5898-0.67383v-2.3418c-1.8807 0.56598-3.5736 0.84766-5.0781 0.84766-2.3339 0-4.1331-0.74527-5.3965-2.2383-1.2634-1.5028-1.8945-3.6349-1.8945-6.3965 0-2.6738 0.65114-4.7824 1.9531-6.3242s3.0911-2.3125 5.3672-2.3125c1.5142 0 3.115 0.39121 4.8027 1.1719l1.071-2.283c-1.659-0.839-3.606-1.26-5.844-1.26z"/>
 </g>
 <path id="path4038" opacity=".1" d="m4 24 20 20h18c1.108 0 2-0.892 2-2v-18h-40z"/>
 <path id="path4026" opacity=".15" d="m6 5c-1.108 0-2 0.892-2 2v17h40v-17c0-1.108-0.892-2-2-2h-36z" fill="url(#linearGradient4191)"/>
</svg>
